image/sprite2.svg

<svg aria-hidden="true" style="position: absolute; width: 0; height: 0; overflow: hidden;" version="1.1" xmlns="http://www.w3.org/2000/svg" xmlns:xlink="http://www.w3.org/1999/xlink">
<defs>
<symbol id="icon-send" viewBox="0 0 32 32">
<path fill="#fff" style="fill: var(--color1, #fff)" d="M32 0l-32 18 10.227 3.788 15.773-14.788-11.998 16.186 0.010 0.004-0.012-0.004v8.814l5.735-6.691 7.265 2.691 5-28z"></path>
</symbol>
<symbol id="icon-close" viewBox="0 0 32 32">
<path d="M32 3.223l-3.223-3.223-12.777 12.777-12.777-12.777-3.223 3.223 12.777 12.777-12.777 12.777 3.223 3.223 12.777-12.777 12.777 12.777 3.223-3.223-12.777-12.777 12.777-12.777z"></path>
</symbol>
<symbol id="icon-ok" viewBox="0 0 32 32">
<path fill="#fff" style="fill: var(--color1, #fff); stroke: var(--color1, #fff)" stroke="#fff" stroke-linejoin="miter" stroke-linecap="butt" stroke-miterlimit="4" stroke-width="0.4923" d="M4.817 15.389l-0.169-0.162-2.544 2.41 8.962 8.55 18.829-17.962-2.527-2.411-16.302 15.536-6.249-5.962z"></path>
</symbol>
<symbol id="icon-cube" viewBox="0 0 32 32">
<path d="M28.444 4.333v23.333h-24.889v-23.333h24.889zM28.444 1h-24.889c-1.956 0-3.556 1.5-3.556 3.333v23.333c0 1.833 1.6 3.333 3.556 3.333h24.889c1.956 0 3.556-1.5 3.556-3.333v-23.333c0-1.833-1.6-3.333-3.556-3.333z"></path>
</symbol>
<symbol id="icon-name" viewBox="0 0 32 32">
<path d="M16 16c2.947 0 5.333-2.387 5.333-5.333s-2.387-5.333-5.333-5.333c-2.947 0-5.333 2.387-5.333 5.333s2.387 5.333 5.333 5.333zM16 18.667c-3.56 0-10.667 1.787-10.667 5.333v1.333c0 0.733 0.6 1.333 1.333 1.333h18.667c0.733 0 1.333-0.6 1.333-1.333v-1.333c0-3.547-7.107-5.333-10.667-5.333z"></path>
</symbol>
<symbol id="icon-tel" viewBox="0 0 32 32">
<path d="M24.882 19.773l-3.268-0.373c-0.785-0.090-1.557 0.18-2.11 0.733l-2.367 2.367c-3.641-1.853-6.626-4.825-8.478-8.478l2.38-2.38c0.553-0.553 0.823-1.325 0.733-2.11l-0.373-3.242c-0.154-1.299-1.248-2.277-2.56-2.277h-2.226c-1.454 0-2.663 1.209-2.573 2.663 0.682 10.987 9.469 19.761 20.443 20.443 1.454 0.090 2.663-1.119 2.663-2.573v-2.226c0.013-1.3-0.965-2.393-2.264-2.547z"></path>
</symbol>
<symbol id="icon-mail" viewBox="0 0 32 32">
<path d="M26.667 5.333h-21.333c-1.467 0-2.653 1.2-2.653 2.667l-0.013 16c0 1.467 1.2 2.667 2.667 2.667h21.333c1.467 0 2.667-1.2 2.667-2.667v-16c0-1.467-1.2-2.667-2.667-2.667zM26.133 11l-9.427 5.893c-0.427 0.267-0.987 0.267-1.413 0l-9.427-5.893c-0.333-0.213-0.533-0.573-0.533-0.96 0-0.893 0.973-1.427 1.733-0.96l8.933 5.587 8.933-5.587c0.76-0.467 1.733 0.067 1.733 0.96 0 0.387-0.2 0.747-0.533 0.96z"></path>
</symbol>
</defs>
</svg>

<svg aria-hidden="true" style="position:absolute;width:0;height:0" xmlns="http://www.w3.org/2000/svg" overflow="hidden"><defs><symbol id="icon-send" viewBox="0 0 32 32"><path d="M32 0L0 18l10.227 3.788L26 7 14.002 23.186l.01.004-.012-.004V32l5.735-6.691L27 28l5-28z"/></symbol><symbol id="icon-close" viewBox="0 0 32 32"><path d="M32 3.223L28.777 0 16 12.777 3.223 0 0 3.223 12.777 16 0 28.777 3.223 32 16 19.223 28.777 32 32 28.777 19.223 16 32 3.223z"/></symbol><symbol id="icon-ok" viewBox="0 0 32 32"><path stroke-width=".492" d="M4.817 15.389l-.169-.162-2.544 2.41 8.962 8.55L29.895 8.225l-2.527-2.411L11.066 21.35l-6.249-5.962z"/></symbol><symbol id="icon-cube" viewBox="0 0 32 32"><path d="M28.444 4.333v23.333H3.555V4.333h24.889zm0-3.333H3.555C1.599 1-.001 2.5-.001 4.333v23.333c0 1.833 1.6 3.333 3.556 3.333h24.889c1.956 0 3.556-1.5 3.556-3.333V4.333C32 2.5 30.4 1 28.444 1z"/></symbol><symbol id="icon-name" viewBox="0 0 32 32"><path d="M16 16c2.947 0 5.333-2.387 5.333-5.333S18.946 5.334 16 5.334c-2.947 0-5.333 2.387-5.333 5.333S13.054 16 16 16zm0 2.667c-3.56 0-10.667 1.787-10.667 5.333v1.333c0 .733.6 1.333 1.333 1.333h18.667c.733 0 1.333-.6 1.333-1.333V24c0-3.547-7.107-5.333-10.667-5.333z"/></symbol><symbol id="icon-tel" viewBox="0 0 32 32"><path d="M24.882 19.773l-3.268-.373a2.561 2.561 0 00-2.11.733L17.137 22.5a19.357 19.357 0 01-8.478-8.478l2.38-2.38a2.561 2.561 0 00.733-2.11l-.373-3.242a2.575 2.575 0 00-2.56-2.277H6.613c-1.454 0-2.663 1.209-2.573 2.663.682 10.987 9.469 19.761 20.443 20.443 1.454.09 2.663-1.119 2.663-2.573V22.32a2.549 2.549 0 00-2.264-2.547z"/></symbol><symbol id="icon-mail" viewBox="0 0 32 32"><path d="M26.667 5.333H5.334A2.663 2.663 0 002.681 8l-.013 16c0 1.467 1.2 2.667 2.667 2.667h21.333c1.467 0 2.667-1.2 2.667-2.667V8c0-1.467-1.2-2.667-2.667-2.667zM26.133 11l-9.427 5.893a1.346 1.346 0 01-1.413 0L5.866 11a1.132 1.132 0 111.2-1.92l8.933 5.587 8.933-5.587a1.132 1.132 0 111.2 1.92z"/></symbol></defs></svg>
